X:1
T:How Shall We Answer Terror’s Cry?
T:How Shall We Answer Terror’s Cry?
T:John Bacchus Dykes, 1860
T:Richard W. Adams, 2001
T:© 2001 Richard W. Adams. Reproduce or publish freely for Christian worship or devotions. Courtesy of the Cyber Hymnal™
T:© 2001 Richard W. Adams. Reproduce or publish freely for Christian worship or devotions. Courtesy of the Cyber Hymnal™
C:John Bacchus Dykes, 1860
Z:© 2001 Richard W. Adams. Reproduce or publish freely for Christian worship or devotions.
Z:Courtesy of the Cyber Hymnal™
%%score ( 1 2 ) ( 3 4 )
L:1/8
Q:1/4=108
M:4/4
K:C
V:1 treble 
V:2 treble 
V:3 bass 
V:4 bass 
V:1
 C2 | [CE]3 [CE] [EG]2 [EG]2 x | [FA]2 [FA]2 [EG]2 G2 | c2 (z [GB]2) G2 x2 | %4
w: 1.~How|shall we an- swer|ter- ror’s cry, The|cun- * ning|
w: 2.~When|Sa- tan whis- pers,|“Hate your foe, Now|take * your|
w: 3.~When|ex- e- cu- tioners|hung You high You|turned * Your|
w: 4.~We|pray that You their|hearts will turn; And|light * a|
 [DG]2 [D^F]2 [DG]2 [B,D]2 | [DF]3 [DF] [CE]2 [CE]2 | [EG]3 [EG] [D^F]2 [FB]2 | [EG]2 (z E3) z x3 | %8
w: blade, the flam- ing|sky? When mur- derous|spite knocks down our|door *|
w: ven- geance— draw the|bow,” Pro- tect us|from the tempt- er’s|guile, *|
w: prayer up to the|sky, And pled the|Fa- ther to for-|give, *|
w: ho- ly fire to|burn Their dross a-|way, so they may|be *|
 [EG]2 [^D^F]2 E2 [B,E]2 | [_B,E]3 [B,E] [A,F]2 [CF]2 | [C^F]3 [CF] [B,G]2 [=FG]2 | %11
w: And vio- lence breaks|up- on our shore,|O let us come|
w: The ly- ing voice,|the e- vil smile.|O let us come|
w: You asked that cru-|el men might live.|O let us Your|
w: Like gold re- fined,~e-|ter- n- al- ly.|O let us pray|
 [EG]2 [DA]2 [EG]2 [CE]2 | [B,D]3 C !fermata!C2 |] %13
w: and look to You|To know Your|
w: in trust to You,|To hear the|
w: ex- amp- le take,|And pray for|
w: that they be- come,|Like us, with|
V:2
 C2 | x9 | x6 G2 | G3 (d2 ^F) x (DE) | x8 | x8 | x8 | x2 ^F2 ^D E2 (A2 F) | x4 E2 x2 | x8 | x8 | %11
 x8 | x3 C C2 |] %13
V:3
 [C,E,]2 | [C,G,]3 [C,G,] C3 z B, | ([F,A,][G,B,]) ([A,C][B,D]) [CE]2 [B,D]2 | %3
 [A,C]2 [D,A,]2 [G,B,]2 ([B,,D][C,C]) x | [D,A,]2 [D,A,]2 [G,B,]2 G,2 | %5
 [B,,G,]3 [B,,G,] [C,G,]2 [C,G,]2 | [^C,A,]3 [C,A,] [D,A,]2 [^D,B,]2 | %7
 [E,B,]2 [^F,A,]2 [G,B,]2 [A,C]2 x2 | B,2 [B,,B,]2 [E,G,]2 [E,G,]2 | [C,G,]3 [C,G,] F,2 [F,A,]2 | %10
 [D,A,]3 [D,A,] G,2 [B,,D]2 | [C,C]2 [^F,,C]2 [G,,C]2 [G,,G,]2 | %12
 [G,,F,]3 [C,E,] !fermata![C,E,]2 |] %13
V:4
 x2 | x4 C,2 C,2 x | x8 | x9 | x6 G,2 | x8 | x8 | x10 | B,2 x6 | x4 F,2 x2 | x4 G,2 x2 | x8 | x6 |] %13

